X: 38238
T: Squirmy's
R: reel
M: 4/4
K: Dmajor
gf|:e2 dB cAAF|GEEF GABd|e/f/e dB agge|dBgB BAAd|
e/f/e dB cAAF|GEEF GABd|e/f/e dB agge|dBgB BAAd:|
|:cEFc dGdG|Bcdg edcB|cEFc dGdG|DEFG AB=cd|
cEFc dGdG|Bcdg edcB|e/f/e dB cAAF|GEcE EDDB:|
|:gBdg adad|gabg abaf|gBgg adad|edcd BcAf|
gBdg adad|gabg abaf|e/f/e dB agge|dBgB BAAf:|

